!!!!SEGMENT: Bar2001-Peccantem_me_cotidie.krn
!!!id: Bar2001
!!!AGN: Motet
!!!SCT: Sherr (1989)
!!!voices: 4
!!!COM: Hotinet Barra
!!!OTL: Peccantem me cotidie
**kern	**kern	**kern	**kern
*part4	*part3	*part2	*part1
*staff4	*staff3	*staff2	*staff1
*I"Bassus	*I"Tenor	*I"Altus	*I"Superius
*I'B	*I'T	*I'A	*I'S
*clefF4	*clefGv2	*clefG2	*clefG2
*k[]	*k[]	*k[]	*k[]
*C:	*C:	*C:	*C:
*M2/1	*M2/1	*M2/1	*M2/1
*met(C)	*met(C)	*met(C)	*met(C)
!!section: Prima Pars: Peccantem me cotidie
!!!OMD: Prima Pars: Peccantem me cotidie
=1	=1	=1	=1
0E	1r	0r	0r
.	[1B	.	.
=2	=2	=2	=2
1G	1B]	0r	0r
2F	1d	.	.
2D	.	.	.
=3	=3	=3	=3
1.A	2c	0r	0r
.	2A	.	.
.	2c	.	.
2G	2B	.	.
=4	=4	=4	=4
1A	1c	0e	1r
[1E	[1B	.	[1b
=5	=5	=5	=5
1E]	1B]	1g	1b]
1r	1r	2f	1dd
.	.	2d	.
=6	=6	=6	=6
0r	0r	1.a	2cc
.	.	.	2a
.	.	.	2cc
.	.	2g	2b
=7	=7	=7	=7
1r	1r	1a	1cc
1E	1G	[1e	[1b
=8	=8	=8	=8
2E	2G	1e]	1b]
2E	2G	.	.
1F	1A	1r	1r
=9	=9	=9	=9
1D	1B	1r	1r
[1C	[1c	1e	1g
=10	=10	=10	=10
1C]	1c]	2e	2g
.	.	2e	2g
1r	1r	1f	1a
=11	=11	=11	=11
1r	2r	1d	1b
.	2G	.	.
2r	2A	2c	2cc
2E	[2B	2e	2g
=12	=12	=12	=12
2E	2B]	2e	2g
2E	2c	2e	2g
1F	1A	1c	1a
=13	=13	=13	=13
1G	1d	1g	1b
2C	2r	2e	2.cc
2C	2c	2e	.
.	.	.	8bL
.	.	.	8aJ
=14	=14	=14	=14
2C	2c	2e	2.g
2C	2G	2e	.
.	.	.	4a
1D	2.d	1f	2b
.	.	.	[2a
.	4c	.	.
=15	=15	=15	=15
1E	1B	1e	2a]
.	.	.	2g#i
1AA	1A	1c	[1a
=16	=16	=16	=16
0D	1r	2d	0a_
.	.	1f	.
.	[1A	.	.
.	.	4e	.
.	.	4d	.
=17	=17	=17	=17
1.F	1A]	1c	1a]
.	[1c	1r	1r
4E	.	.	.
4D	.	.	.
=18	=18	=18	=18
1E	2c]	1r	0r
.	4B	.	.
.	4A	.	.
1D	1B	[1d	.
=19	=19	=19	=19
0D	0A	1d]	0a
.	.	[1f	.
=20	=20	=20	=20
0r	0r	2f]	1.cc
.	.	4e	.
.	.	4d	.
.	.	1e	.
.	.	.	4b
.	.	.	4a
=21	=21	=21	=21
2r	1r	2d	1b
2G	.	2d	.
2F	2r	1f	1a
2D	2d	.	.
=22	=22	=22	=22
1.F	2c	1.f	2a
.	2A	.	1cc
.	1c	.	.
2C	.	2e	2cc
=23	=23	=23	=23
2.E	2G	1e	1b
.	2.B	.	.
4F	.	.	.
2.G	.	1r	1r
.	4c	.	.
.	[2d	.	.
8FL	.	.	.
8EJ	.	.	.
=24	=24	=24	=24
2F	2d]	0r	0r
2G	4c	.	.
.	4B	.	.
2E	2c	.	.
4D	[2d	.	.
4E	.	.	.
=25	=25	=25	=25
4F	4d]	1r	0r
4G	4c	.	.
1A	4B	.	.
.	4A	.	.
.	1B	1d	.
2G#i	.	.	.
=26	=26	=26	=26
2A	1A	2c	1a
2F	.	2A	.
2E	[1e	[1c	2g
[2C	.	.	2e
=27	=27	=27	=27
4C]	1e]	2c]	1.g
4D	.	.	.
4E	.	2G	.
4F	.	.	.
1G	1r	2.B	.
.	.	.	2d
.	.	4c	.
=28	=28	=28	=28
1D	0r	2.d	2.f
.	.	8cL	4g
.	.	8BJ	.
1r	.	2c	2a
.	.	2d	4g
.	.	.	4f
=29	=29	=29	=29
0r	1r	2B	2g
.	.	4A	2.a
.	.	4B	.
.	1G	4c	.
.	.	4d	4g
.	.	[2e	4f
.	.	.	4e
=30	=30	=30	=30
1r	2A	4e]	1f
.	.	8dL	.
.	.	8cJ	.
.	2B	2d	.
1C	2c	2G	1e
.	2G	2g	.
=31	=31	=31	=31
2D	2B	2f	2r
2E	2B	2e	2g
2F	2A	2c	2.a
2D	[2d	2d	.
.	.	.	4b
=32	=32	=32	=32
1A	4d]	2.e	1cc
.	8cL	.	.
.	8BJ	.	.
.	2c	.	.
.	.	4f	.
2G	2d	1g	2b
2E	2e	.	2g
=33	=33	=33	=33
1F	1c	2r	0a
.	.	2c	.
1D	1d	1f	.
=34	=34	=34	=34
2E	2B	2.e	2g
2C	2e	.	2cc
.	.	8fL	.
.	.	8eJ	.
1D	2.d	1f	2b
.	.	.	[2a
.	4c	.	.
=35	=35	=35	=35
1E	2B	2e	4a]
.	.	.	4g
.	4A	2c	1g
.	4G	.	.
1D	1A	1d	.
.	.	.	2f#i
=36	=36	=36	=36
2GG	2G	1d	1g
1G	1B	.	.
.	.	2r	2r
2G	2B	[2d	[2g
=37	=37	=37	=37
2G	2B	2d]	2g]
2G	2B	2d	2g
[1G	[1B	2d	2g
.	.	2d	2g
=38	=38	=38	=38
1G]	1B]	1d	1g
[1D	1A	[1d	[1f
=39	=39	=39	=39
1D]	2r	0d]	1f]
.	1A	.	.
1D	.	.	2r
.	[2B	.	2f
=40	=40	=40	=40
2E	4B]	0r	2g
.	4c	.	.
2F	2A	.	2.a
2D	2.B	.	.
.	.	.	4f
2E	.	.	2g
.	4c	.	.
=41	=41	=41	=41
1F	2d	0r	2f
.	2.c	.	1a
1D	.	.	.
.	8BL	.	.
.	8AJ	.	.
.	2B	.	4g
.	.	.	4f
=42	=42	=42	=42
0C	1c	1r	2.e
.	.	.	4f
.	[1c	1e	1g
=43	=43	=43	=43
1.F	2c]	1.f	1.a
.	2c	.	.
.	2c	.	.
2F	2c	2f	2a
=44	=44	=44	=44
2F	2A	2f	2a
2F	2A	2f	2a
2D	1d	1f	2a
2D	.	.	2a
=45	=45	=45	=45
1F	1c	1f	1a
1C	2r	1e	1g
.	[2e	.	.
=46	=46	=46	=46
1.A	2e]	1c	1r
.	2e	.	.
.	2e	[1a	[1cc
2A	2e	.	.
=47	=47	=47	=47
2A	2c	2a]	2cc]
2A	2c	2a	2cc
2F	1f	2a	2cc
2F	.	2a	2cc
=48	=48	=48	=48
1A	1.e	2a	2cc
.	.	2a	2cc
1E	.	2.g	1b
.	4d	.	.
.	4c	8fL	.
.	.	8eJ	.
=49	=49	=49	=49
2r	2B	2d	2g
2E	2.c	2e	2g
2F	.	2c	1a
.	4A	.	.
2D	2d	2f	.
=50	=50	=50	=50
1A	2c	2e	1cc
.	2A	2c	.
2G	2B	2d	2b
2E	[2c	2e	2g
=51	=51	=51	=51
2F	4c]	2A	2a
.	4B	.	.
2E	2G	2e	1cc
1F	1A	2c	.
.	.	2d	4b
.	.	.	4a
=52	=52	=52	=52
2E	2B	1e	2g
2C	2.c	.	2g
2F	.	2c	1a
.	4A	.	.
2D	2d	2f	.
=53	=53	=53	=53
1A	2c	2e	1cc
.	2A	2c	.
2G	2B	2d	2b
2E	[2c	2e	2g
=54	=54	=54	=54
2F	4c]	2A	2a
.	4B	.	.
2E	2G	2e	1cc
1F	2.A	2c	.
.	.	2d	4b
.	4B	.	4a
=55	=55	=55	=55
2E	1c	2.e	2.g
2C	.	.	.
.	.	4e	4a
2G	2B	2d	2b
2E	2G	2e	[2cc
=56	=56	=56	=56
1F	1A	2.c	4cc]
.	.	.	4b
.	.	.	1a
.	.	4d	.
[1E	[1B	[1e	.
.	.	.	4g#i
.	.	.	4f#i
=57	=57	=57	=57
1E;]	1B;]	1e;]	1g#i;
[1A	1A	2.c	[1a
.	.	4d	.
=58	=58	=58	=58
2A]	0c	2e	1a]
2.F	.	1f	.
.	.	.	1a
4G	.	.	.
2A	.	2e	.
=59	=59	=59	=59
1D	1d	1f	1a
[1Al	[1cl	[1el	[1al
=60	=60	=60	=60
00A]	00c]	00e]	00a]
==	==	==	==
*-	*-	*-	*-
!!!system-decoration: [*]
!!!RDF**kern: i = editorial accidental
!!!RDF**kern: l = terminal long
!!!ENC: Benjamin Ory
!!!END: 2022/3/21
!!!EED: Benjamin Ory
!!!EEV: 2022/03/21
!!!YEC: Copyright 2022 Benjamin Ory, All Rights Reserved
!!!ONB: Translated from MusicXML on 2022/03/21
